X:1
T:Title
%%score ( 1 2 ) { 3 | 4 }
L:1/8
Q:1/4=100
M:6/8
K:Ab
V:1 treble nm="Grand Piano, Soprano"
V:2 treble 
V:3 bass nm="Choir Pad, Veracruz, John T. Camp"
V:4 bass 
V:1
 [CE] [Ec]2 [Ec] [CA]2 | [CA] [DB]2 [DB] [DF]2 | [DF] [DG]2 [DG] [DF]2 | %3
w: By~John~T.~Camp,~1893 * * *|||
 [DE] [CE]2- [CE]2- [CE]/ z/ | [CE] [Ec]2 [Ec] [CA]2 | [CA] [DB]2 [DB] [DF]2 | %6
w: |||
 [DF] [DE]2 [DE]D-[DF] | [DG] [CA]2- [CA]2- [CA]/ z/ | [EA] [DG]2 [CA] [EB]2 | %9
w: |||
 [EB] [EA]2 [EB] [Ec]2 | [Ec] [Ed]2 [Ed] [Ec]2 | [EA] [EB]2- [EB]2- [EB]/ z/ | %12
w: |||
 [EB] [Ec]2 [Ec] [CA]2 | [Ec] [Fd]2 [Fd] [DF]2 | [DF] [DE]2 [DE]D-[DF] | [DG] [CA]2- [CA]3- | %16
w: ||||
 [CA]2 z z3 |] %17
w: |
V:2
 x6 | x6 | x6 | x6 | x6 | x6 | z3 z .E2 | x6 | x6 | x6 | x6 | x6 | x6 | x6 | z3 z .E2 | x6 | x6 |] %17
V:3
 A, A,2 A, A,2 | A, F,2 F, A,2 | A, E,2 E, B,2 | G, A,2- A,2- A,/ z/ | A, A,2 A, A,2 | %5
 A, F,2 F, A,2 | A, G,2 G,G,A, | B,[K:treble] C2- C2- C/ z/ | C B,2[K:bass] A, G,2 | %9
 G, A,2 G, A,2 | A, B,2 B, A,2 | A, G,2- G,2- G,/ z/ | G, A,2 A, A,2 | A, A,2 A, A,2 | %14
 A, G,2 G,G,A, | B, A,2- A,3- | A,3 z3 |] %17
V:4
 A,, A,,2 A,, A,,2 | A,, D,2 D, D,2 | .D,3 z E,2 | E, A,,2- A,,2- A,,/ z/ | A,, A,,2 A,, A,,2 | %5
 A,, D,2 D, D,2 | D, E,2 E, E,2 | E, A,,2- A,,2- A,,/ z/ | A, E,2 E, E,2 | D, C,2 .E,3 | %10
 z G,2 .G,3 | C, E,2- E,2- E,/ z/ | E, A,,2 A,, A,,2 | A,, D,2 D, D,2 | D, E,2 E, E,2 | %15
 E, A,,2- A,,3- | A,,3 z3 |] %17

